packages/core/src/svgs/tokens/mono/VENT.svg

<svg width="24" height="24" viewBox="0 0 24 24" fill="none" xmlns="http://www.w3.org/2000/svg">
<path d="M22 3.76465L18.4176 16.0411C18.3294 16.347 18.2411 16.6587 18.1412 16.9706C18.0941 17.1235 18.0471 17.2764 17.9882 17.4293C17.8015 17.9493 17.5105 18.4256 17.1332 18.8293C16.756 19.2328 16.3004 19.5551 15.7942 19.7763C15.1941 20.0234 14.5589 20.1294 13.9176 20.1764C13.3236 20.2235 12.6 20.2352 12 20.2352C11.4059 20.2352 10.6765 20.2235 10.0823 20.1764C9.43968 20.1432 8.80623 20.0083 8.20586 19.7763C7.69219 19.5655 7.23018 19.246 6.85148 18.8399C6.47276 18.4339 6.18633 17.9506 6.01175 17.4235C5.95294 17.2764 5.90587 17.1235 5.85881 16.9706C5.75882 16.6587 5.67058 16.347 5.58235 16.0411L2 3.76465C2.65882 3.78819 3.4647 3.8176 4.11763 3.8823C4.80587 3.94701 5.54117 4.07053 6.18235 4.37053C6.86469 4.69407 7.35881 5.17054 7.73529 5.84112C8.09999 6.48818 8.32352 7.22936 8.5294 7.92936C10.0295 12.9999 11.8 18.7353 11.8 18.7353H12.2C12.2 18.7353 13.9647 13.0117 15.4764 7.92936C15.6823 7.22936 15.9 6.48818 16.2647 5.84701C16.6089 5.20123 17.1541 4.68502 17.8176 4.37642C18.4647 4.07053 19.2 3.95289 19.8764 3.8823C20.5411 3.8176 21.3353 3.78819 22 3.76465Z" fill="white"/>
</svg>

<svg xmlns="http://www.w3.org/2000/svg" width="24" height="24" fill="none" viewBox="0 0 24 24">
    <path fill="#fff" d="M22 3.765 18.418 16.04c-.089.306-.177.618-.277.93-.047.152-.094.305-.153.458a4.06 4.06 0 0 1-2.194 2.347c-.6.247-1.235.353-1.876.4-.594.048-1.318.06-1.918.06a26 26 0 0 1-1.918-.06 6 6 0 0 1-1.876-.4 3.85 3.85 0 0 1-2.194-2.352 6 6 0 0 1-.153-.453c-.1-.312-.188-.624-.277-.93L2 3.765c.659.023 1.465.053 2.118.117.688.065 1.423.189 2.064.489.683.323 1.177.8 1.553 1.47.365.647.589 1.388.794 2.088A1145 1145 0 0 0 11.8 18.735h.4s1.765-5.723 3.276-10.806c.206-.7.424-1.44.789-2.082a3.37 3.37 0 0 1 1.553-1.47c.647-.306 1.382-.424 2.058-.495A37 37 0 0 1 22 3.765"/>
</svg>
